symbolic/32x32/apps/omnetpp.svg

<svg xmlns="http://www.w3.org/2000/svg" width="32" height="32" version="1.1">
 <rect style="opacity:0.2" width="25" height="25" x="4" y="6" rx="1.25" ry="1.25"/>
 <rect style="fill:#008383" width="25" height="25" x="4" y="5" rx="1.25" ry="1.25"/>
 <path style="fill:#ffffff;opacity:0.1" d="M 5.25 5 C 4.5575 5 4 5.5575 4 6.25 L 4 7.25 C 4 6.5575 4.5575 6 5.25 6 L 27.75 6 C 28.4425 6 29 6.5575 29 7.25 L 29 6.25 C 29 5.5575 28.4425 5 27.75 5 L 5.25 5 z"/>
 <path style="fill:#d4d5cc" d="M 7,8 V 27 H 26 V 8 Z"/>
 <path style="opacity:0.1" d="M 23.485493,7.3509554 C 22.141707,10.162368 18.235909,15.433296 12.821289,19.912108 8.23784,23.702012 3.8274168,25.821794 0.95,26.799999 4.323494,25.868376 9.5630527,23.959047 14.907617,20.360546 20.104519,16.865267 25.459829,12.564332 27.839,10.735999 25.906709,10.449332 23.991505,9.2033451 23.485493,7.3509554 Z"/>
 <path style="fill:#d43519" d="M 23.485493,6.3509564 C 22.141707,9.1623692 18.235909,14.433297 12.821289,18.912109 8.23784,22.702013 3.8274168,24.821795 0.95,25.8 4.323494,24.868377 9.5630527,22.959048 14.907617,19.360547 20.104519,15.865268 25.459829,11.564333 27.839,9.736 25.906709,9.4493333 23.991505,8.2033461 23.485493,6.3509564 Z"/>
 <rect style="fill:#008383" width="3" height="4" x="4" y="22"/>
 <path style="opacity:0.2" d="m 31,6.998473 c 0,2.2078487 -1.792048,4.001526 -4.000291,4.001526 C 24.789748,10.999999 23,9.2063217 23,6.998473 23,4.789276 24.789748,2.999999 26.999709,2.999999 29.207952,2.999999 31,4.789276 31,6.998473"/>
 <path style="fill:#f84529" d="M 31,5.998474 C 31,8.2063227 29.207952,10 26.999709,10 24.789748,10 23,8.2063227 23,5.998474 23,3.789277 24.789748,2 26.999709,2 29.207952,2 31,3.789277 31,5.998474"/>
 <path style="fill:#ffffff;opacity:0.2" d="M 27 2 C 24.790039 2 23 3.7888499 23 5.9980469 C 23 6.1691128 23.02993 6.3325954 23.050781 6.4980469 C 23.29905 4.5276336 24.961269 3 27 3 C 29.037147 3 30.700656 4.5276336 30.949219 6.4980469 C 30.970095 6.3325954 31 6.1691128 31 5.9980469 C 31 3.7888499 29.208243 2 27 2 z"/>
 <rect style="opacity:0.2" width="19" height="1" x="7" y="27"/>
</svg>

<svg xmlns="http://www.w3.org/2000/svg" width="32" height="32"><rect style="opacity:.2" width="25" height="25" x="4" y="6" rx="1.25" ry="1.25"/><rect style="fill:#008383" width="25" height="25" x="4" y="5" rx="1.25" ry="1.25"/><path style="fill:#fff;opacity:.1" d="M5.25 5C4.558 5 4 5.558 4 6.25v1C4 6.558 4.558 6 5.25 6h22.5c.692 0 1.25.558 1.25 1.25v-1C29 5.558 28.442 5 27.75 5H5.25z"/><path style="fill:#d4d5cc" d="M7 8v19h19V8z"/><path style="opacity:.1" d="M23.485 7.351c-1.343 2.811-5.25 8.082-10.664 12.561C8.238 23.702 3.827 25.822.95 26.8c3.373-.932 8.613-2.841 13.958-6.44 5.197-3.495 10.552-7.796 12.931-9.624-1.932-.287-3.847-1.533-4.354-3.385z"/><path style="fill:#d43519" d="M23.485 6.351c-1.343 2.811-5.25 8.082-10.664 12.561C8.238 22.702 3.827 24.822.95 25.8c3.373-.932 8.613-2.841 13.958-6.44 5.197-3.495 10.552-7.796 12.931-9.624-1.932-.287-3.847-1.533-4.354-3.385z"/><path style="fill:#008383" d="M4 22h3v4H4z"/><path style="opacity:.2" d="M31 6.998A4.003 4.003 0 0 1 27 11c-2.21 0-4-1.794-4-4.002C23 4.79 24.79 3 27 3a4 4 0 0 1 4 3.998"/><path style="fill:#f84529" d="M31 5.998A4.003 4.003 0 0 1 27 10c-2.21 0-4-1.794-4-4.002C23 3.79 24.79 2 27 2a4 4 0 0 1 4 3.998"/><path style="fill:#fff;opacity:.2" d="M27 2c-2.21 0-4 1.789-4 3.998 0 .171.03.335.05.5C23.3 4.528 24.962 3 27 3c2.037 0 3.7 1.528 3.95 3.498.02-.165.05-.329.05-.5A3.999 3.999 0 0 0 27 2z"/><path style="opacity:.2" d="M7 27h19v1H7z"/></svg>
